X: 16081
T: the Cyprus Grove
C: James Oswald (ca.1740)
%R: air, strathspey
B: James Oswald "The Caledonian Pocket Companion" v.1 b.6 p.8 #1
S: https://ia800501.us.archive.org/18/items/caledonianpocket01rugg/caledonianpocket01rugg_bw.pdf
Z: 2020 John Chambers <jc:trillian.mit.edu>
N: Dots added to final notes in all the strains.
N: The final grace note {G} should probably be sharp, too.
M: C
L: 1/8
K: Am
%%slurgraces 0
%%graceslurs 0
"_Slow"A>B |\
{B}Tc2B>A A2(a>b) | {a}^g4 z2a2 | c2(de) (fe)(dc) | {c}B4 z2AB |\
c2B>A A2(a>b) | {a}^g4 z2a2 | c2(fe) (dc)(BA) | e6 :|
|: B2 |\
c2(e>d) (c>d)(e>f) | g4 z2^G2 | A2(f>e) (dc)(BA) | E4 z2^g2 |\
(a=g)(fe) (fe)(d^c) | (d3e/f/) e4 | {d}c2(BA) (ed)(cB) | A6 :|
|: A>B |\
(3(cBA) A2 (ec'b)a | Ta2^g2 z2a>c | B2c>e (3agf (3edc | Tc2B2 z2A>B |\
(3(cBA) e2 ac'ba | Ta2^g2 z2a2 | (ge)(fd) (ec)(BA) | e6 :|
|: zB |\
c2(3(edc) c2(3(edc) | e>fg2 z2^G2 | A2(3(cBA) (ec)(BA) | TA2^G2 z2^g2 |\
a3=g {a}gf{g}fe | (d3e/f/) e3d | c2B>A (fd)(e^G) | {G}A6 :|
